markets/AVAX.svg

<svg width="42" height="42" viewBox="0 0 42 42" fill="none" xmlns="http://www.w3.org/2000/svg">
<g clip-path="url(#clip0_7277_57296)">
<path d="M33.9521 7.20483H8.01996V30.774H33.9521V7.20483Z" fill="white"/>
<path fill-rule="evenodd" clip-rule="evenodd" d="M41.986 20.9999C41.986 32.5826 32.5904 41.972 21 41.972C9.40974 41.972 0.0139771 32.5826 0.0139771 20.9999C0.0139771 9.41735 9.40974 0.027832 21 0.027832C32.5904 0.027832 41.986 9.41735 41.986 20.9999ZM15.0532 29.3457H10.9804C10.1245 29.3457 9.70181 29.3457 9.44405 29.181C9.16565 29.0006 8.99552 28.7018 8.9749 28.372C8.95942 28.0681 9.17082 27.6971 9.59355 26.9552L19.6498 9.24144C20.0777 8.48924 20.2942 8.11314 20.5675 7.97404C20.8613 7.82464 21.2119 7.82464 21.5058 7.97404C21.779 8.11314 21.9955 8.48924 22.4234 9.24144L24.4908 12.8479L24.5013 12.8663C24.9635 13.6732 25.1979 14.0824 25.3002 14.5119C25.4136 14.9808 25.4136 15.4754 25.3002 15.9442C25.1971 16.377 24.9651 16.7892 24.4959 17.6083L19.2136 26.9397L19.2 26.9636C18.7347 27.7772 18.499 28.1896 18.1722 28.5007C17.8165 28.8408 17.3886 29.088 16.9194 29.2273C16.4915 29.3457 16.0121 29.3457 15.0532 29.3457ZM25.3383 29.3457H31.1742C32.0351 29.3457 32.4683 29.3457 32.7262 29.1759C33.0045 28.9955 33.1797 28.6914 33.1954 28.3619C33.2102 28.0679 33.0034 27.7113 32.5982 27.0125C32.5842 26.9887 32.5703 26.9645 32.556 26.9398L29.6328 21.9424L29.5995 21.8861C29.1887 21.192 28.9814 20.8414 28.7151 20.7059C28.4214 20.5565 28.0757 20.5565 27.782 20.7059C27.5139 20.845 27.2974 21.2108 26.8695 21.9475L23.9567 26.945L23.9467 26.9622C23.5203 27.6978 23.3072 28.0653 23.3226 28.3669C23.3432 28.6967 23.5133 29.0006 23.7917 29.181C24.0443 29.3457 24.4774 29.3457 25.3383 29.3457Z" fill="#E84142"/>
</g>
<defs>
<clipPath id="clip0_7277_57296">
<rect width="42" height="42" fill="white"/>
</clipPath>
</defs>
</svg>

<svg xmlns="http://www.w3.org/2000/svg" width="42" height="42" fill="none"><g clip-path="url(#a)"><path fill="#fff" d="M33.952 7.205H8.02v23.569h25.932V7.204Z"/><path fill="#E84142" fill-rule="evenodd" d="M41.986 21c0 11.583-9.396 20.972-20.986 20.972S.014 32.582.014 21C.014 9.417 9.41.028 21 .028S41.986 9.418 41.986 21Zm-26.933 8.346H10.98c-.856 0-1.278 0-1.536-.165a1.034 1.034 0 0 1-.47-.809c-.015-.304.197-.675.62-1.417L19.65 9.241c.428-.752.644-1.128.918-1.267.293-.15.644-.15.938 0 .273.14.49.515.917 1.267l2.068 3.607.01.018c.462.807.697 1.216.8 1.646.113.469.113.963 0 1.432-.104.433-.336.845-.805 1.664l-5.282 9.332-.014.024c-.465.813-.701 1.226-1.028 1.537-.355.34-.783.587-1.253.726-.428.119-.907.119-1.866.119Zm10.285 0h5.836c.861 0 1.294 0 1.552-.17.279-.18.454-.485.47-.814.014-.294-.193-.65-.598-1.35l-.042-.072-2.923-4.998-.034-.056c-.41-.694-.618-1.045-.884-1.18-.294-.15-.64-.15-.933 0-.268.139-.485.505-.913 1.242l-2.912 4.997-.01.017c-.427.736-.64 1.103-.624 1.405.02.33.19.634.469.814.252.165.685.165 1.546.165Z" clip-rule="evenodd"/></g><defs><clipPath id="a"><path fill="#fff" d="M0 0h42v42H0z"/></clipPath></defs></svg>
